icelandair.svg

<?xml version="1.0" encoding="UTF-8"?>
<svg height="20px" viewBox="0 0 24 24" version="1.1" xmlns="http://www.w3.org/2000/svg" xmlns:xlink="http://www.w3.org/1999/xlink">
    <title>Iceland Air</title>
    <path d="M24,0 L17.658,20 L8.8817842e-16,20 L18.003,0 L24,0 Z M11.895,14.9045521 C10.869,14.969163 9.939,15.1395007 9.423,15.4625551 C9.31310992,15.5226105 9.22661263,15.616581 9.177,15.7298091 C9.123,15.876652 9.279,16.0646109 9.459,16.1350954 C9.669,16.2143906 9.945,16.2701909 10.383,16.2760646 C10.671,16.2790015 10.953,16.2643172 11.241,16.2290749 L11.895,14.907489 L11.895,14.9045521 Z M17.778,11.8091043 C17.778,11.8091043 17.598,12.020558 16.878,12.1703377 C16.5970063,12.2199027 16.3107638,12.2347029 16.026,12.2143906 C15.357,12.1791483 14.886,11.9647577 13.794,11.8707783 C12.318,11.7444934 11.211,12.1585903 10.524,12.6049927 C10.353,12.722467 10.251,12.7400881 10.068,13.1101322 C9.738,13.8208517 9.45,14.4140969 9.21,14.948605 C9.16537412,15.0365246 9.13115233,15.1291464 9.108,15.2246696 C9.228,15.0954479 9.966,14.0646109 13.776,14.3935389 C15.225,14.5256975 15.96,14.4640235 16.707,13.6035242 C17.1212712,13.0409925 17.4798894,12.4411246 17.778,11.8120411 L17.778,11.8091043 Z M19.311,8.75477239 C19.311,8.75477239 18.789,9.26872247 17.211,9.27459618 C16.155,9.25991189 15.579,8.9339207 14.292,8.92217327 C12.861,8.90455213 11.772,9.37444934 11.445,10.0293686 L10.485,12.1350954 C10.848,11.856094 11.262,11.6387665 11.7,11.5036711 C12.732,11.1835536 13.689,11.2452276 14.673,11.4008811 C15.393,11.5154185 15.792,11.6563877 16.446,11.6358297 C16.8433334,11.6427842 17.2351837,11.5443465 17.58,11.3509545 C17.877,11.1806167 18.141,10.9192364 18.516,10.3524229 C18.738,9.92951542 19.218,8.94273128 19.311,8.75477239 L19.311,8.75477239 Z" fill="#001B71"></path>
</svg>

<svg height="20" viewBox="0 0 24 24" xmlns="http://www.w3.org/2000/svg"><path d="m24 0-6.342 20H0L18.003 0H24ZM11.895 14.905c-1.026.064-1.956.235-2.472.558a.562.562 0 0 0-.246.267c-.054.147.102.335.282.405.21.08.486.135.924.141.288.003.57-.012.858-.047l.654-1.322v-.002Zm5.883-3.096s-.18.212-.9.361a3.48 3.48 0 0 1-.852.044c-.669-.035-1.14-.25-2.232-.343-1.476-.127-2.583.288-3.27.734-.171.117-.273.135-.456.505-.33.71-.618 1.304-.858 1.839-.045.088-.079.18-.102.276.12-.13.858-1.16 4.668-.831 1.449.132 2.184.07 2.931-.79.414-.563.773-1.163 1.071-1.792v-.003Zm1.533-3.054s-.522.514-2.1.52c-1.056-.015-1.632-.341-2.919-.353-1.431-.017-2.52.452-2.847 1.107l-.96 2.106a3.882 3.882 0 0 1 1.215-.631c1.032-.32 1.989-.259 2.973-.103.72.114 1.119.255 1.773.235a2.24 2.24 0 0 0 1.134-.285c.297-.17.561-.432.936-.999.222-.422.702-1.41.795-1.597Z" fill="#001B71"/></svg>
